images/indikatorenset/5827.svg

<?xml version="1.0" standalone="no"?><!DOCTYPE svg PUBLIC "-//W3C//DTD SVG 1.1//EN" "http://www.w3.org/Graphics/SVG/1.1/DTD/svg11.dtd"><svg xmlns:xlink="http://www.w3.org/1999/xlink" version="1.1" class="highcharts-root" style="font-family:arial;font-size:12px;" xmlns="http://www.w3.org/2000/svg" width="485" height="415"><desc>Created with Highstock 5.0.14</desc><defs><clipPath id="highcharts-y997eno-6"><rect x="0" y="0" width="416" height="294" fill="none"></rect></clipPath><clipPath id="highcharts-y997eno-7"><rect x="0" y="0" width="416" height="294" fill="none"></rect></clipPath></defs><rect fill="#fbfbfb" class="highcharts-background" x="0" y="0" width="485" height="415" rx="0" ry="0"></rect><rect fill="none" class="highcharts-plot-background" x="59" y="55" width="416" height="294"></rect><g class="highcharts-pane-group"></g><g class="highcharts-grid highcharts-xaxis-grid "><path fill="none" class="highcharts-grid-line" d="M 62.5 55 L 62.5 349" opacity="1"></path><path fill="none" class="highcharts-grid-line" d="M 164.5 55 L 164.5 349" opacity="1"></path><path fill="none" class="highcharts-grid-line" d="M 266.5 55 L 266.5 349" opacity="1"></path><path fill="none" class="highcharts-grid-line" d="M 368.5 55 L 368.5 349" opacity="1"></path><path fill="none" class="highcharts-grid-line" d="M 470.5 55 L 470.5 349" opacity="1"></path></g><g class="highcharts-grid highcharts-yaxis-grid "><path fill="none" stroke="#B9CFD7" stroke-width="0.5" class="highcharts-grid-line" d="M 59 349.25 L 475 349.25" opacity="1"></path><path fill="none" stroke="#B9CFD7" stroke-width="0.5" class="highcharts-grid-line" d="M 59 290.25 L 475 290.25" opacity="1"></path><path fill="none" stroke="#B9CFD7" stroke-width="0.5" class="highcharts-grid-line" d="M 59 231.25 L 475 231.25" opacity="1"></path><path fill="none" stroke="#B9CFD7" stroke-width="0.5" class="highcharts-grid-line" d="M 59 173.25 L 475 173.25" opacity="1"></path><path fill="none" stroke="#B9CFD7" stroke-width="0.5" class="highcharts-grid-line" d="M 59 114.25 L 475 114.25" opacity="1"></path><path fill="none" stroke="#B9CFD7" stroke-width="0.5" class="highcharts-grid-line" d="M 59 54.75 L 475 54.75" opacity="1"></path></g><rect fill="none" class="highcharts-plot-border" x="59" y="55" width="416" height="294"></rect><g class="highcharts-axis highcharts-xaxis "><path fill="none" class="highcharts-axis-line" stroke="#B9CFD7" stroke-width="0.5" d="M 59 349.25 L 475 349.25"></path></g><g class="highcharts-axis highcharts-yaxis "><path fill="none" class="highcharts-axis-line" d="M 59 55 L 59 349"></path></g><g class="highcharts-series-group"><g class="highcharts-series highcharts-series-0 highcharts-line-series highcharts-color-undefined " transform="translate(59,55) scale(1 1)" clip-path="url(#highcharts-y997eno-7)"><path fill="none" d="M 4.0784313725454 34.69200000000001 L 55.058823529409 34.69200000000001 L 106.03921568627 35.867999999999995 L 157.01960784314 35.867999999999995 L 208 35.867999999999995 L 258.98039215686 35.867999999999995 L 309.96078431373 52.920000000000016 L 360.94117647059 52.920000000000016 L 411.92156862745 52.33200000000002" class="highcharts-graph" stroke="#007A2F" stroke-width="2" stroke-linejoin="round" stroke-linecap="round"></path></g><g class="highcharts-markers highcharts-series-0 highcharts-line-series highcharts-color-undefined " transform="translate(59,55) scale(1 1)" clip-path="none"><path fill="#007A2F" d="M 8 35 A 4 4 0 1 1 7.999998000000167 34.99600000066666 Z" class="highcharts-point"></path><path fill="#007A2F" d="M 59 35 A 4 4 0 1 1 58.99999800000017 34.99600000066666 Z" class="highcharts-point"></path><path fill="#007A2F" d="M 110 36 A 4 4 0 1 1 109.99999800000016 35.99600000066666 Z" class="highcharts-point"></path><path fill="#007A2F" d="M 161 36 A 4 4 0 1 1 160.99999800000018 35.99600000066666 Z" class="highcharts-point"></path><path fill="#007A2F" d="M 212 36 A 4 4 0 1 1 211.99999800000018 35.99600000066666 Z" class="highcharts-point"></path><path fill="#007A2F" d="M 262 36 A 4 4 0 1 1 261.9999980000002 35.99600000066666 Z" class="highcharts-point"></path><path fill="#007A2F" d="M 313 53 A 4 4 0 1 1 312.9999980000002 52.99600000066666 Z" class="highcharts-point"></path><path fill="#007A2F" d="M 364 53 A 4 4 0 1 1 363.9999980000002 52.99600000066666 Z" class="highcharts-point"></path><path fill="#007A2F" d="M 415 52 A 4 4 0 1 1 414.9999980000002 51.99600000066666 Z" class="highcharts-point"></path></g></g><text x="10" text-anchor="start" class="highcharts-title" style="color:#000000;font-size:14px;font-weight:bold;fill:#000000;" y="21"><tspan>Anteil Landwirtschaftsfläche</tspan></text><text x="10" text-anchor="start" class="highcharts-subtitle" style="color:#000000;font-size:12px;font-weight:normal;font-family:arial;fill:#000000;" y="40"><tspan>gemäss Zonenplan</tspan></text><g class="highcharts-data-labels highcharts-series-0 highcharts-line-series highcharts-color-undefined " visibility="visible" transform="translate(59,55) scale(1 1)"><g class="highcharts-label highcharts-data-label highcharts-data-label-color-undefined " transform="translate(-5,42)"><text x="5" style="font-size:11px;font-weight:bold;color:#000000;fill:#000000;" y="16"><tspan x="5" y="16" class="highcharts-text-outline" fill="#FFFFFF" stroke="#FFFFFF" stroke-width="2px" stroke-linejoin="round" style="">441</tspan><tspan x="5" y="16">441</tspan></text></g><g class="highcharts-label highcharts-data-label highcharts-data-label-color-undefined " transform="translate(50,55)"><text x="5" style="font-size:11px;font-weight:bold;color:#000000;fill:#000000;" y="16"></text></g><g class="highcharts-label highcharts-data-label highcharts-data-label-color-undefined " transform="translate(101,56)"><text x="5" style="font-size:11px;font-weight:bold;color:#000000;fill:#000000;" y="16"></text></g><g class="highcharts-label highcharts-data-label highcharts-data-label-color-undefined " transform="translate(152,56)"><text x="5" style="font-size:11px;font-weight:bold;color:#000000;fill:#000000;" y="16"></text></g><g class="highcharts-label highcharts-data-label highcharts-data-label-color-undefined " transform="translate(203,56)"><text x="5" style="font-size:11px;font-weight:bold;color:#000000;fill:#000000;" y="16"></text></g><g class="highcharts-label highcharts-data-label highcharts-data-label-color-undefined " transform="translate(254,56)"><text x="5" style="font-size:11px;font-weight:bold;color:#000000;fill:#000000;" y="16"></text></g><g class="highcharts-label highcharts-data-label highcharts-data-label-color-undefined " transform="translate(305,73)"><text x="5" style="font-size:11px;font-weight:bold;color:#000000;fill:#000000;" y="16"></text></g><g class="highcharts-label highcharts-data-label highcharts-data-label-color-undefined " transform="translate(356,73)"><text x="5" style="font-size:11px;font-weight:bold;color:#000000;fill:#000000;" y="16"></text></g><g class="highcharts-label highcharts-data-label highcharts-data-label-color-undefined " transform="translate(392,59)"><text x="5" style="font-size:11px;font-weight:bold;color:#000000;fill:#000000;" y="16"><tspan x="5" y="16" class="highcharts-text-outline" fill="#FFFFFF" stroke="#FFFFFF" stroke-width="2px" stroke-linejoin="round">411</tspan><tspan x="5" y="16">411</tspan></text></g></g><g class="highcharts-axis-labels highcharts-xaxis-labels "><text x="63.07843137254538" style="color:#000000;cursor:default;font-size:11px;fill:#000000;" text-anchor="middle" transform="translate(0,0)" y="368" opacity="1"><tspan>2008</tspan></text><text x="165.03921568627268" style="color:#000000;cursor:default;font-size:11px;fill:#000000;" text-anchor="middle" transform="translate(0,0)" y="368" opacity="1"><tspan>2010</tspan></text><text x="267" style="color:#000000;cursor:default;font-size:11px;fill:#000000;" text-anchor="middle" transform="translate(0,0)" y="368" opacity="1"><tspan>2012</tspan></text><text x="368.9607843137273" style="color:#000000;cursor:default;font-size:11px;fill:#000000;" text-anchor="middle" transform="translate(0,0)" y="368" opacity="1"><tspan>2014</tspan></text><text x="462.78125" style="color:#000000;cursor:default;font-size:11px;fill:#000000;" text-anchor="middle" transform="translate(0,0)" y="368" opacity="1"><tspan>2016</tspan></text></g><g class="highcharts-axis-labels highcharts-yaxis-labels "><text x="44" style="color:#000000;cursor:default;font-size:11px;fill:#000000;" text-anchor="end" transform="translate(0,0)" y="354" opacity="1"><tspan>0 ha</tspan></text><text x="44" style="color:#000000;cursor:default;font-size:11px;fill:#000000;" text-anchor="end" transform="translate(0,0)" y="295" opacity="1"><tspan>100 ha</tspan></text><text x="44" style="color:#000000;cursor:default;font-size:11px;fill:#000000;" text-anchor="end" transform="translate(0,0)" y="236" opacity="1"><tspan>200 ha</tspan></text><text x="44" style="color:#000000;cursor:default;font-size:11px;fill:#000000;" text-anchor="end" transform="translate(0,0)" y="177" opacity="1"><tspan>300 ha</tspan></text><text x="44" style="color:#000000;cursor:default;font-size:11px;fill:#000000;" text-anchor="end" transform="translate(0,0)" y="118" opacity="1"><tspan>400 ha</tspan></text><text x="44" style="color:#000000;cursor:default;font-size:11px;fill:#000000;" text-anchor="end" transform="translate(0,0)" y="60" opacity="1"><tspan>500 ha</tspan></text></g><text x="10" class="highcharts-credits" text-anchor="start" style="cursor:default;color:#000000;font-size:10px;fill:#000000;" y="410"><tspan>Quelle:</tspan></text></svg>

<svg class="highcharts-root" xmlns="http://www.w3.org/2000/svg" width="485" height="415" font-family="arial" font-size="12">
    <defs>
        <clipPath id="a">
            <path fill="none" d="M0 0h416v294H0z"/>
        </clipPath>
    </defs>
    <rect fill="#fbfbfb" class="highcharts-background" width="485" height="415" rx="0" ry="0"/>
    <path fill="none" class="highcharts-plot-background" d="M59 55h416v294H59z"/>
    <g class="highcharts-grid highcharts-xaxis-grid">
        <path fill="none" class="highcharts-grid-line" d="M62.5 55v294m102-294v294m102-294v294m102-294v294m102-294v294"/>
    </g>
    <g class="highcharts-grid highcharts-yaxis-grid">
        <path fill="none" stroke="#B9CFD7" stroke-width=".5" class="highcharts-grid-line" d="M59 349.25h416m-416-59h416m-416-59h416m-416-58h416m-416-59h416M59 54.75h416"/>
    </g>
    <path fill="none" class="highcharts-plot-border" d="M59 55h416v294H59z"/>
    <g class="highcharts-axis highcharts-xaxis">
        <path fill="none" class="highcharts-axis-line" stroke="#B9CFD7" stroke-width=".5" d="M59 349.25h416"/>
    </g>
    <g class="highcharts-axis highcharts-yaxis">
        <path fill="none" class="highcharts-axis-line" d="M59 55v294"/>
    </g>
    <g class="highcharts-series-group">
        <g class="highcharts-series highcharts-series-0 highcharts-line-series highcharts-color-undefined" transform="translate(59 55)" clip-path="url(#a)">
            <path fill="none" d="M4.078 34.692h50.98l50.981 1.176H258.98l50.98 17.052h50.981l50.98-.588" class="highcharts-graph" stroke="#007A2F" stroke-width="2" stroke-linejoin="round" stroke-linecap="round"/>
        </g>
        <g class="highcharts-markers highcharts-series-0 highcharts-line-series highcharts-color-undefined">
            <path fill="#007A2F" d="M67 90a4 4 0 1 1 0-.004zm51 0a4 4 0 1 1 0-.004zm51 1a4 4 0 1 1 0-.004zm51 0a4 4 0 1 1 0-.004zm51 0a4 4 0 1 1 0-.004zm50 0a4 4 0 1 1 0-.004zm51 17a4 4 0 1 1 0-.004zm51 0a4 4 0 1 1 0-.004zm51-1a4 4 0 1 1 0-.004z" class="highcharts-point"/>
        </g>
    </g>
    <text x="10" class="highcharts-title" y="21" color="#000" font-size="14" font-weight="700">
        <tspan>Anteil Landwirtschaftsfläche</tspan>
    </text>
    <text x="10" class="highcharts-subtitle" y="40" color="#000" font-weight="400">
        <tspan>gemäss Zonenplan</tspan>
    </text>
    <g class="highcharts-data-labels highcharts-series-0 highcharts-line-series highcharts-color-undefined">
        <text x="5" y="16" font-size="11" font-weight="700" color="#000" transform="translate(54 97)" class="highcharts-label highcharts-data-label highcharts-data-label-color-undefined">
            <tspan x="5" y="16" class="highcharts-text-outline" fill="#FFF" stroke="#FFF" stroke-width="2" stroke-linejoin="round">441</tspan><tspan x="5" y="16">441</tspan>
        </text>
        <text x="5" y="16" font-size="11" font-weight="700" color="#000" transform="translate(451 114)" class="highcharts-label highcharts-data-label highcharts-data-label-color-undefined">
            <tspan x="5" y="16" class="highcharts-text-outline" fill="#FFF" stroke="#FFF" stroke-width="2" stroke-linejoin="round">411</tspan><tspan x="5" y="16">411</tspan>
        </text>
    </g>
    <g class="highcharts-axis-labels highcharts-xaxis-labels" text-anchor="middle" color="#000" cursor="default" font-size="11">
        <text x="63.078" y="368">
            <tspan>2008</tspan>
        </text>
        <text x="165.039" y="368">
            <tspan>2010</tspan>
        </text>
        <text x="267" y="368">
            <tspan>2012</tspan>
        </text>
        <text x="368.961" y="368">
            <tspan>2014</tspan>
        </text>
        <text x="462.781" y="368">
            <tspan>2016</tspan>
        </text>
    </g>
    <g class="highcharts-axis-labels highcharts-yaxis-labels" text-anchor="end" color="#000" cursor="default" font-size="11">
        <text x="44" y="354">
            <tspan>0 ha</tspan>
        </text>
        <text x="44" y="295">
            <tspan>100 ha</tspan>
        </text>
        <text x="44" y="236">
            <tspan>200 ha</tspan>
        </text>
        <text x="44" y="177">
            <tspan>300 ha</tspan>
        </text>
        <text x="44" y="118">
            <tspan>400 ha</tspan>
        </text>
        <text x="44" y="60">
            <tspan>500 ha</tspan>
        </text>
    </g>
    <text x="10" class="highcharts-credits" y="410" cursor="default" color="#000" font-size="10">
        <tspan>Quelle:</tspan>
    </text>
</svg>
